material/.icons/material/cheese.svg

<svg xmlns="http://www.w3.org/2000/svg" viewBox="0 0 24 24"><path d="M11 17.5c0-.83.67-1.5 1.5-1.5.29 0 .56.09.79.23l7.46-4.3c-.4-.71-.85-1.38-1.34-2.03a.92.92 0 01-.41.1c-.55 0-1-.45-1-1 0-.2.08-.38.18-.54A17.742 17.742 0 0012 4.25C11.85 5.24 11 6 10 6a2 2 0 01-2-2c0-.28.06-.55.16-.79C7.3 3.08 6.41 3 5.5 3c-.17 0-.33 0-.5.03v6.02a2.5 2.5 0 010 4.9V21l6-3.46v-.04M14 9a2 2 0 110 4c-1.11 0-2-.89-2-2s.9-2 2-2m-5 7c-.55 0-1-.45-1-1s.45-1 1-1 1 .45 1 1-.45 1-1 1m0-6c-.55 0-1-.45-1-1s.45-1 1-1 1 .45 1 1-.45 1-1 1z"/></svg>

<?xml version="1.0" encoding="UTF-8"?><!DOCTYPE svg PUBLIC "-//W3C//DTD SVG 1.1//EN" "http://www.w3.org/Graphics/SVG/1.1/DTD/svg11.dtd"><svg xmlns="http://www.w3.org/2000/svg" xmlns:xlink="http://www.w3.org/1999/xlink" version="1.1" id="mdi-cheese" width="24" height="24" viewBox="0 0 24 24"><path d="M11 17.5C11 16.67 11.67 16 12.5 16C12.79 16 13.06 16.09 13.29 16.23L20.75 11.93C20.35 11.22 19.9 10.55 19.41 9.9C19.29 9.96 19.15 10 19 10C18.45 10 18 9.55 18 9C18 8.8 18.08 8.62 18.18 8.46C16.45 6.64 14.34 5.2 12 4.25C11.85 5.24 11 6 10 6C8.9 6 8 5.11 8 4C8 3.72 8.06 3.45 8.16 3.21C7.3 3.08 6.41 3 5.5 3C5.33 3 5.17 3 5 3.03V9.05C6.14 9.28 7 10.29 7 11.5S6.14 13.72 5 13.95V21L11 17.54C11 17.53 11 17.5 11 17.5M14 9C15.11 9 16 9.9 16 11S15.11 13 14 13 12 12.11 12 11 12.9 9 14 9M9 16C8.45 16 8 15.55 8 15S8.45 14 9 14 10 14.45 10 15 9.55 16 9 16M9 10C8.45 10 8 9.55 8 9S8.45 8 9 8 10 8.45 10 9 9.55 10 9 10Z" /></svg>
